icons/svgs/arrow-right-from-arc-outline.svg

<svg width="24" height="24" viewBox="0 0 24 24" fill="none" xmlns="http://www.w3.org/2000/svg">
<path d="M3.875 12C3.875 16.4922 7.50781 20.125 12 20.125C12.5078 20.125 12.9375 20.5547 12.9375 21.0625C12.9375 21.6094 12.5078 22 12 22C6.45312 22 2 17.5469 2 12C2 6.49219 6.45312 2 12 2C12.5078 2 12.9375 2.42969 12.9375 2.9375C12.9375 3.48438 12.5078 3.875 12 3.875C7.50781 3.875 3.875 7.54688 3.875 12ZM17.3125 7.27344L21.6875 11.3359C21.8828 11.4922 22 11.7656 22 12C22 12.2734 21.8828 12.5469 21.6875 12.7031L17.3125 16.7656C16.9219 17.1172 16.3359 17.0781 15.9844 16.7266C15.6328 16.3359 15.6719 15.75 16.0234 15.3984L18.6406 12.9375H9.1875C8.64062 12.9375 8.25 12.5469 8.25 12C8.25 11.4922 8.64062 11.0625 9.1875 11.0625H18.6406L16.0234 8.64062C15.6328 8.28906 15.6328 7.70312 15.9844 7.3125C16.3359 6.92188 16.9219 6.92188 17.3125 7.27344Z" fill="black"/>
</svg>

<svg xmlns="http://www.w3.org/2000/svg" width="24" height="24" fill="currentColor" class="icon-arrow-right-from-arc-outline" viewBox="0 0 24 24">
  <mask id="a" width="20" height="20" x="2" y="2" maskUnits="userSpaceOnUse" style="mask-type:alpha">
    <path d="M3.875 12A8.12 8.12 0 0 0 12 20.125a.95.95 0 0 1 .938.938c0 .546-.43.937-.938.937A9.97 9.97 0 0 1 2 12C2 6.492 6.453 2 12 2a.95.95 0 0 1 .938.938c0 .546-.43.937-.938.937-4.492 0-8.125 3.672-8.125 8.125m13.438-4.727 4.375 4.063c.195.156.312.43.312.664 0 .273-.117.547-.312.703l-4.375 4.063a.97.97 0 0 1-1.329-.04.97.97 0 0 1 .04-1.328l2.617-2.46H9.188c-.547 0-.938-.391-.938-.938 0-.508.39-.937.938-.937h9.453L16.023 8.64c-.39-.352-.39-.938-.039-1.328s.938-.391 1.329-.04"/>
  </mask>
  <g mask="url(#a)">
    <path d="M0 0h24v24H0z"/>
  </g>
</svg>
